src/assets/images/facebook.svg

<svg width="13" height="22" viewBox="0 0 13 22" fill="none" xmlns="http://www.w3.org/2000/svg">
<path d="M12 1H9C7.67392 1 6.40215 1.52678 5.46447 2.46447C4.52678 3.40215 4 4.67392 4 6V9H1V13H4V21H8V13H11L12 9H8V6C8 5.73478 8.10536 5.48043 8.29289 5.29289C8.48043 5.10536 8.73478 5 9 5H12V1Z" stroke="#41EAD4" stroke-width="2" stroke-linecap="round" stroke-linejoin="round"/>
</svg>

<svg xmlns="http://www.w3.org/2000/svg" width="13" height="22" fill="none"  xmlns:v="https://vecta.io/nano"><path d="M12 1H9a5 5 0 0 0-5 5v3H1v4h3v8h4v-8h3l1-4H8V6a1 1 0 0 1 1-1h3V1z" stroke="#41ead4" stroke-width="2" stroke-linejoin="round"/></svg>
